img/frey.svg

<?xml version="1.0" encoding="UTF-8" standalone="no"?><!DOCTYPE svg PUBLIC "-//W3C//DTD SVG 1.1//EN" "http://www.w3.org/Graphics/SVG/1.1/DTD/svg11.dtd"><svg width="100%" height="100%" viewBox="0 0 390 199" version="1.1" xmlns="http://www.w3.org/2000/svg" xmlns:xlink="http://www.w3.org/1999/xlink" xml:space="preserve" xmlns:serif="http://www.serif.com/" style="fill-rule:evenodd;clip-rule:evenodd;stroke-linejoin:round;stroke-miterlimit:2;"><g><path d="M100.2,72.2l0.4,-2.4l8.6,0c3.867,-6 7.833,-12.067 11.9,-18.2c4.067,-6.133 8.533,-11.9 13.4,-17.3c4.867,-5.4 10.267,-10.2 16.2,-14.4c5.933,-4.2 12.567,-7.233 19.9,-9.1l0,-0.4c-3.467,0 -7,-0.033 -10.6,-0.1c-3.6,-0.067 -7.5,-0.167 -11.7,-0.3c-4.2,-0.133 -8.867,-0.233 -14,-0.3c-5.133,-0.067 -10.967,-0.1 -17.5,-0.1c-13.2,-0 -25.2,1.133 -36,3.4c-10.8,2.267 -20.033,5.467 -27.7,9.6c-7.667,4.133 -13.633,8.967 -17.9,14.5c-4.267,5.533 -6.533,11.633 -6.8,18.3c-0.267,6.4 2.033,11.5 6.9,15.3c4.867,3.8 11.5,5.7 19.9,5.7c5.467,0 11.067,-0.9 16.8,-2.7c5.733,-1.8 10.933,-4.333 15.6,-7.6c4.667,-3.267 8.5,-7.167 11.5,-11.7c3,-4.533 4.5,-9.467 4.5,-14.8c0,-2.267 -0.2,-4.3 -0.6,-6.1c-0.4,-1.8 -0.8,-3.433 -1.2,-4.9l2,-0.4c1.467,3.733 2.2,7.6 2.2,11.6c0,4.8 -1.4,9.533 -4.2,14.2c-2.8,4.667 -6.533,8.833 -11.2,12.5c-4.667,3.667 -10.1,6.633 -16.3,8.9c-6.2,2.267 -12.633,3.4 -19.3,3.4c-8.933,-0 -16,-2 -21.2,-6c-5.2,-4 -7.8,-9.6 -7.8,-16.8c0,-7.333 2.5,-14.367 7.5,-21.1c5,-6.733 12.233,-12.7 21.7,-17.9c9.467,-5.2 21.1,-9.333 34.9,-12.4c13.8,-3.067 29.5,-4.6 47.1,-4.6c11.733,-0 21.967,0.133 30.7,0.4c8.733,0.267 15.233,0.4 19.5,0.4c3.067,-0 5.833,-0.133 8.3,-0.4c2.467,-0.267 4.7,-0.4 6.7,-0.4c2.667,-0 4.933,0.167 6.8,0.5c1.867,0.333 2.8,1.5 2.8,3.5c-0,1.733 -0.333,3.067 -1,4c-0.667,0.933 -2.3,1.6 -4.9,2c-2.6,0.4 -6.433,0.633 -11.5,0.7c-5.067,0.067 -11.933,0.1 -20.6,0.1c-7.733,2.8 -14.2,6.5 -19.4,11.1c-5.2,4.6 -9.7,9.6 -13.5,15c-3.8,5.4 -7.2,10.933 -10.2,16.6c-3,5.667 -6.3,10.967 -9.9,15.9c1.6,-0.267 3.633,-0.467 6.1,-0.6c2.467,-0.133 4.9,-0.333 7.3,-0.6c2.4,-0.267 4.6,-0.6 6.6,-1c2,-0.4 3.267,-1 3.8,-1.8c1.2,-1.6 2.633,-3.2 4.3,-4.8c1.667,-1.6 3.9,-2.4 6.7,-2.4c1.733,-0 3.4,0.267 5,0.8c-5.467,4.667 -10.6,9.7 -15.4,15.1c-4.8,5.4 -9.133,11.167 -13,17.3l-1.2,-0.6c1.333,-3.733 2.933,-7.3 4.8,-10.7c1.867,-3.4 3.733,-6.833 5.6,-10.3c-1.733,0.267 -3.633,0.5 -5.7,0.7c-2.067,0.2 -4.1,0.4 -6.1,0.6c-2,0.2 -3.867,0.367 -5.6,0.5c-1.733,0.133 -3.133,0.267 -4.2,0.4c-4.8,8 -9.967,15.933 -15.5,23.8c-5.533,7.867 -11.7,14.967 -18.5,21.3c-6.8,6.333 -14.4,11.467 -22.8,15.4c-8.4,3.933 -17.867,5.9 -28.4,5.9c-3.6,0 -7.433,-0.467 -11.5,-1.4c-4.067,-0.933 -7.833,-2.4 -11.3,-4.4c-3.467,-2 -6.333,-4.533 -8.6,-7.6c-2.267,-3.067 -3.4,-6.733 -3.4,-11c-0,-2.667 0.767,-5.133 2.3,-7.4c1.533,-2.267 3.767,-3.4 6.7,-3.4c2.133,-0 3.767,0.667 4.9,2c1.133,1.333 1.7,3 1.7,5c-0,1.867 -0.467,3.5 -1.4,4.9c-0.933,1.4 -2.333,2.1 -4.2,2.1c-0.8,-0 -1.467,-0.067 -2,-0.2c-0,0.4 0.167,1.633 0.5,3.7c0.333,2.067 1.367,4.233 3.1,6.5c1.733,2.267 4.5,4.3 8.3,6.1c3.8,1.8 9.1,2.7 15.9,2.7c8.667,0 16.6,-2.167 23.8,-6.5c7.2,-4.333 13.733,-9.7 19.6,-16.1c5.867,-6.4 11.167,-13.333 15.9,-20.8c4.733,-7.467 9.033,-14.267 12.9,-20.4l-7.8,0Z" style="fill-rule:nonzero;"/><path d="M187.6,68l-25.4,37l0.4,0.4c1.867,-2.267 4.233,-4.9 7.1,-7.9c2.867,-3 6,-6.067 9.4,-9.2c3.4,-3.133 6.967,-6.233 10.7,-9.3c3.733,-3.067 7.4,-5.8 11,-8.2c0.667,-1.333 1.4,-2.4 2.2,-3.2c0.8,-0.8 2.4,-1.2 4.8,-1.2c1.467,0 2.767,0.033 3.9,0.1c1.133,0.067 2.3,0.167 3.5,0.3c-2.267,2.267 -4.467,5.033 -6.6,8.3c-2.133,3.267 -3.2,6.833 -3.2,10.7c0,3.067 0.767,5.467 2.3,7.2c1.533,1.733 3.433,2.6 5.7,2.6c2,0 3.967,-0.4 5.9,-1.2c1.933,-0.8 3.767,-1.8 5.5,-3c1.733,-1.2 3.4,-2.467 5,-3.8c1.6,-1.333 3,-2.533 4.2,-3.6l1.2,0.8c-1.333,1.333 -2.867,2.767 -4.6,4.3c-1.733,1.533 -3.6,2.967 -5.6,4.3c-2,1.333 -4.133,2.433 -6.4,3.3c-2.267,0.867 -4.6,1.3 -7,1.3c-4.267,0 -7.7,-1.3 -10.3,-3.9c-2.6,-2.6 -3.9,-6.233 -3.9,-10.9c0,-3.2 0.733,-6.067 2.2,-8.6l-0.4,-0.4c-5.467,3.733 -11.467,8.633 -18,14.7c-6.533,6.067 -13.467,13.233 -20.8,21.5c-2.667,2.933 -5.433,6.8 -8.3,11.6c-2.867,4.8 -5.367,9.733 -7.5,14.8l-13,0c7.2,-11.467 14.4,-22.867 21.6,-34.2c7.2,-11.333 14.6,-22.867 22.2,-34.6l12.2,0Z" style="fill-rule:nonzero;"/><path d="M269.8,74.4c0,-1.867 -0.5,-3.267 -1.5,-4.2c-1,-0.933 -2.233,-1.4 -3.7,-1.4c-2.8,0 -5.833,1.1 -9.1,3.3c-3.267,2.2 -6.5,4.933 -9.7,8.2c-3.2,3.267 -6.1,6.767 -8.7,10.5c-2.6,3.733 -4.567,7.067 -5.9,10c2.933,-0.533 6.6,-1.567 11,-3.1c4.4,-1.533 8.633,-3.433 12.7,-5.7c4.067,-2.267 7.567,-4.9 10.5,-7.9c2.933,-3 4.4,-6.233 4.4,-9.7Zm32.4,10.6c-2,3.333 -4.5,7 -7.5,11c-3,4 -6.4,7.967 -10.2,11.9c-3.8,3.933 -7.867,7.733 -12.2,11.4c-4.333,3.667 -8.833,6.933 -13.5,9.8c-4.667,2.867 -9.367,5.133 -14.1,6.8c-4.733,1.667 -9.367,2.5 -13.9,2.5c-5.6,0 -9.933,-1.433 -13,-4.3c-3.067,-2.867 -4.6,-6.967 -4.6,-12.3c0,-5.867 1.767,-12.033 5.3,-18.5c3.533,-6.467 8.033,-12.433 13.5,-17.9c5.467,-5.467 11.467,-10 18,-13.6c6.533,-3.6 12.8,-5.4 18.8,-5.4c3.333,0 5.933,0.7 7.8,2.1c1.867,1.4 2.8,3.433 2.8,6.1c0,3.2 -1.733,6.3 -5.2,9.3c-3.467,3 -7.7,5.733 -12.7,8.2c-5,2.467 -10.367,4.667 -16.1,6.6c-5.733,1.933 -10.8,3.367 -15.2,4.3c-1.467,2.667 -2.667,5.667 -3.6,9c-0.933,3.333 -1.4,6.667 -1.4,10c0,1.6 0.167,3.167 0.5,4.7c0.333,1.533 0.867,2.933 1.6,4.2c0.733,1.267 1.733,2.3 3,3.1c1.267,0.8 2.833,1.2 4.7,1.2c4.4,0 9.567,-1.433 15.5,-4.3c5.933,-2.867 11.967,-6.7 18.1,-11.5c6.133,-4.8 12,-10.267 17.6,-16.4c5.6,-6.133 10.4,-12.467 14.4,-19l1.6,1Z" style="fill-rule:nonzero;"/><path d="M322.8,68c-4.8,6.933 -9.6,13.6 -14.4,20c-4.8,6.4 -9.1,12.267 -12.9,17.6c-3.8,5.333 -6.9,10.033 -9.3,14.1c-2.4,4.067 -3.6,7.3 -3.6,9.7c0,3.867 1.867,5.8 5.6,5.8c3.867,0 8.367,-1.867 13.5,-5.6c5.133,-3.733 10.567,-8.7 16.3,-14.9c5.733,-6.2 11.567,-13.333 17.5,-21.4c5.933,-8.067 11.633,-16.5 17.1,-25.3l12.4,0c-7.867,10.8 -15.2,21.9 -22,33.3c-6.8,11.4 -13.933,22.7 -21.4,33.9c12.667,-2.267 24.767,-7.833 36.3,-16.7c11.533,-8.867 21.767,-19.9 30.7,-33.1l1.4,0.6c-9.6,14.667 -20.5,26.433 -32.7,35.3c-12.2,8.867 -24.567,14.3 -37.1,16.3c-5.2,7.067 -10.5,14.233 -15.9,21.5c-5.4,7.267 -11.333,13.8 -17.8,19.6c-6.467,5.8 -13.567,10.533 -21.3,14.2c-7.733,3.667 -16.467,5.5 -26.2,5.5c-4.4,0 -8.567,-0.567 -12.5,-1.7c-3.933,-1.133 -7.367,-2.7 -10.3,-4.7c-2.933,-2 -5.267,-4.4 -7,-7.2c-1.733,-2.8 -2.6,-5.8 -2.6,-9c0,-6.933 2.3,-12 6.9,-15.2c4.6,-3.2 10.167,-4.8 16.7,-4.8l-0,0.6c-4.8,1.067 -8.333,3.233 -10.6,6.5c-2.267,3.267 -3.4,7.367 -3.4,12.3c-0,3.333 0.667,6.3 2,8.9c1.333,2.6 3.067,4.767 5.2,6.5c2.133,1.733 4.567,3.067 7.3,4c2.733,0.933 5.567,1.4 8.5,1.4c6.267,-0 12.333,-1.467 18.2,-4.4c5.867,-2.933 11.5,-6.8 16.9,-11.6c5.4,-4.8 10.567,-10.233 15.5,-16.3c4.933,-6.067 9.6,-12.333 14,-18.8c4.4,-6.467 8.5,-12.8 12.3,-19c3.8,-6.2 7.3,-11.767 10.5,-16.7l-0.4,-0.4c-2.133,2.533 -4.733,5.5 -7.8,8.9c-3.067,3.4 -6.433,6.633 -10.1,9.7c-3.667,3.067 -7.567,5.667 -11.7,7.8c-4.133,2.133 -8.4,3.2 -12.8,3.2c-4.267,0 -7.333,-0.867 -9.2,-2.6c-1.867,-1.733 -2.8,-4.067 -2.8,-7c0,-2.667 0.7,-5.5 2.1,-8.5c1.4,-3 3.633,-6.767 6.7,-11.3c3.067,-4.533 6.967,-10.067 11.7,-16.6c4.733,-6.533 10.433,-14.667 17.1,-24.4l13.4,-0Z" style="fill-rule:nonzero;"/></g></svg>

<?xml version="1.0" encoding="UTF-8" standalone="no"?>
<!DOCTYPE svg PUBLIC "-//W3C//DTD SVG 1.1//EN" "http://www.w3.org/Graphics/SVG/1.1/DTD/svg11.dtd">
<svg width="100%" height="100%" viewBox="0 0 176 90" version="1.1" xmlns="http://www.w3.org/2000/svg" xmlns:xlink="http://www.w3.org/1999/xlink" xml:space="preserve" xmlns:serif="http://www.serif.com/" style="fill-rule:evenodd;clip-rule:evenodd;stroke-linejoin:round;stroke-miterlimit:2;">
    <g transform="matrix(0.451282,0,0,0.452261,0,0)">
        <path d="M100.2,72.2L100.6,69.8L109.2,69.8C113.067,63.8 117.033,57.733 121.1,51.6C125.167,45.467 129.633,39.7 134.5,34.3C139.367,28.9 144.767,24.1 150.7,19.9C156.633,15.7 163.267,12.667 170.6,10.8L170.6,10.4C167.133,10.4 163.6,10.367 160,10.3C156.4,10.233 152.5,10.133 148.3,10C144.1,9.867 139.433,9.767 134.3,9.7C129.167,9.633 123.333,9.6 116.8,9.6C103.6,9.6 91.6,10.733 80.8,13C70,15.267 60.767,18.467 53.1,22.6C45.433,26.733 39.467,31.567 35.2,37.1C30.933,42.633 28.667,48.733 28.4,55.4C28.133,61.8 30.433,66.9 35.3,70.7C40.167,74.5 46.8,76.4 55.2,76.4C60.667,76.4 66.267,75.5 72,73.7C77.733,71.9 82.933,69.367 87.6,66.1C92.267,62.833 96.1,58.933 99.1,54.4C102.1,49.867 103.6,44.933 103.6,39.6C103.6,37.333 103.4,35.3 103,33.5C102.6,31.7 102.2,30.067 101.8,28.6L103.8,28.2C105.267,31.933 106,35.8 106,39.8C106,44.6 104.6,49.333 101.8,54C99,58.667 95.267,62.833 90.6,66.5C85.933,70.167 80.5,73.133 74.3,75.4C68.1,77.667 61.667,78.8 55,78.8C46.067,78.8 39,76.8 33.8,72.8C28.6,68.8 26,63.2 26,56C26,48.667 28.5,41.633 33.5,34.9C38.5,28.167 45.733,22.2 55.2,17C64.667,11.8 76.3,7.667 90.1,4.6C103.9,1.533 119.6,0 137.2,0C148.933,0 159.167,0.133 167.9,0.4C176.633,0.667 183.133,0.8 187.4,0.8C190.467,0.8 193.233,0.667 195.7,0.4C198.167,0.133 200.4,0 202.4,0C205.067,0 207.333,0.167 209.2,0.5C211.067,0.833 212,2 212,4C212,5.733 211.667,7.067 211,8C210.333,8.933 208.7,9.6 206.1,10C203.5,10.4 199.667,10.633 194.6,10.7C189.533,10.767 182.667,10.8 174,10.8C166.267,13.6 159.8,17.3 154.6,21.9C149.4,26.5 144.9,31.5 141.1,36.9C137.3,42.3 133.9,47.833 130.9,53.5C127.9,59.167 124.6,64.467 121,69.4C122.6,69.133 124.633,68.933 127.1,68.8C129.567,68.667 132,68.467 134.4,68.2C136.8,67.933 139,67.6 141,67.2C143,66.8 144.267,66.2 144.8,65.4C146,63.8 147.433,62.2 149.1,60.6C150.767,59 153,58.2 155.8,58.2C157.533,58.2 159.2,58.467 160.8,59C155.333,63.667 150.2,68.7 145.4,74.1C140.6,79.5 136.267,85.267 132.4,91.4L131.2,90.8C132.533,87.067 134.133,83.5 136,80.1C137.867,76.7 139.733,73.267 141.6,69.8C139.867,70.067 137.967,70.3 135.9,70.5C133.833,70.7 131.8,70.9 129.8,71.1C127.8,71.3 125.933,71.467 124.2,71.6C122.467,71.733 121.067,71.867 120,72C115.2,80 110.033,87.933 104.5,95.8C98.967,103.667 92.8,110.767 86,117.1C79.2,123.433 71.6,128.567 63.2,132.5C54.8,136.433 45.333,138.4 34.8,138.4C31.2,138.4 27.367,137.933 23.3,137C19.233,136.067 15.467,134.6 12,132.6C8.533,130.6 5.667,128.067 3.4,125C1.133,121.933 0,118.267 0,114C0,111.333 0.767,108.867 2.3,106.6C3.833,104.333 6.067,103.2 9,103.2C11.133,103.2 12.767,103.867 13.9,105.2C15.033,106.533 15.6,108.2 15.6,110.2C15.6,112.067 15.133,113.7 14.2,115.1C13.267,116.5 11.867,117.2 10,117.2C9.2,117.2 8.533,117.133 8,117C8,117.4 8.167,118.633 8.5,120.7C8.833,122.767 9.867,124.933 11.6,127.2C13.333,129.467 16.1,131.5 19.9,133.3C23.7,135.1 29,136 35.8,136C44.467,136 52.4,133.833 59.6,129.5C66.8,125.167 73.333,119.8 79.2,113.4C85.067,107 90.367,100.067 95.1,92.6C99.833,85.133 104.133,78.333 108,72.2L100.2,72.2Z" style="fill-rule:nonzero;"/>
        <path d="M187.6,68L162.2,105L162.6,105.4C164.467,103.133 166.833,100.5 169.7,97.5C172.567,94.5 175.7,91.433 179.1,88.3C182.5,85.167 186.067,82.067 189.8,79C193.533,75.933 197.2,73.2 200.8,70.8C201.467,69.467 202.2,68.4 203,67.6C203.8,66.8 205.4,66.4 207.8,66.4C209.267,66.4 210.567,66.433 211.7,66.5C212.833,66.567 214,66.667 215.2,66.8C212.933,69.067 210.733,71.833 208.6,75.1C206.467,78.367 205.4,81.933 205.4,85.8C205.4,88.867 206.167,91.267 207.7,93C209.233,94.733 211.133,95.6 213.4,95.6C215.4,95.6 217.367,95.2 219.3,94.4C221.233,93.6 223.067,92.6 224.8,91.4C226.533,90.2 228.2,88.933 229.8,87.6C231.4,86.267 232.8,85.067 234,84L235.2,84.8C233.867,86.133 232.333,87.567 230.6,89.1C228.867,90.633 227,92.067 225,93.4C223,94.733 220.867,95.833 218.6,96.7C216.333,97.567 214,98 211.6,98C207.333,98 203.9,96.7 201.3,94.1C198.7,91.5 197.4,87.867 197.4,83.2C197.4,80 198.133,77.133 199.6,74.6L199.2,74.2C193.733,77.933 187.733,82.833 181.2,88.9C174.667,94.967 167.733,102.133 160.4,110.4C157.733,113.333 154.967,117.2 152.1,122C149.233,126.8 146.733,131.733 144.6,136.8L131.6,136.8C138.8,125.333 146,113.933 153.2,102.6C160.4,91.267 167.8,79.733 175.4,68L187.6,68Z" style="fill-rule:nonzero;"/>
        <path d="M269.8,74.4C269.8,72.533 269.3,71.133 268.3,70.2C267.3,69.267 266.067,68.8 264.6,68.8C261.8,68.8 258.767,69.9 255.5,72.1C252.233,74.3 249,77.033 245.8,80.3C242.6,83.567 239.7,87.067 237.1,90.8C234.5,94.533 232.533,97.867 231.2,100.8C234.133,100.267 237.8,99.233 242.2,97.7C246.6,96.167 250.833,94.267 254.9,92C258.967,89.733 262.467,87.1 265.4,84.1C268.333,81.1 269.8,77.867 269.8,74.4ZM302.2,85C300.2,88.333 297.7,92 294.7,96C291.7,100 288.3,103.967 284.5,107.9C280.7,111.833 276.633,115.633 272.3,119.3C267.967,122.967 263.467,126.233 258.8,129.1C254.133,131.967 249.433,134.233 244.7,135.9C239.967,137.567 235.333,138.4 230.8,138.4C225.2,138.4 220.867,136.967 217.8,134.1C214.733,131.233 213.2,127.133 213.2,121.8C213.2,115.933 214.967,109.767 218.5,103.3C222.033,96.833 226.533,90.867 232,85.4C237.467,79.933 243.467,75.4 250,71.8C256.533,68.2 262.8,66.4 268.8,66.4C272.133,66.4 274.733,67.1 276.6,68.5C278.467,69.9 279.4,71.933 279.4,74.6C279.4,77.8 277.667,80.9 274.2,83.9C270.733,86.9 266.5,89.633 261.5,92.1C256.5,94.567 251.133,96.767 245.4,98.7C239.667,100.633 234.6,102.067 230.2,103C228.733,105.667 227.533,108.667 226.6,112C225.667,115.333 225.2,118.667 225.2,122C225.2,123.6 225.367,125.167 225.7,126.7C226.033,128.233 226.567,129.633 227.3,130.9C228.033,132.167 229.033,133.2 230.3,134C231.567,134.8 233.133,135.2 235,135.2C239.4,135.2 244.567,133.767 250.5,130.9C256.433,128.033 262.467,124.2 268.6,119.4C274.733,114.6 280.6,109.133 286.2,103C291.8,96.867 296.6,90.533 300.6,84L302.2,85Z" style="fill-rule:nonzero;"/>
        <path d="M322.8,68C318,74.933 313.2,81.6 308.4,88C303.6,94.4 299.3,100.267 295.5,105.6C291.7,110.933 288.6,115.633 286.2,119.7C283.8,123.767 282.6,127 282.6,129.4C282.6,133.267 284.467,135.2 288.2,135.2C292.067,135.2 296.567,133.333 301.7,129.6C306.833,125.867 312.267,120.9 318,114.7C323.733,108.5 329.567,101.367 335.5,93.3C341.433,85.233 347.133,76.8 352.6,68L365,68C357.133,78.8 349.8,89.9 343,101.3C336.2,112.7 329.067,124 321.6,135.2C334.267,132.933 346.367,127.367 357.9,118.5C369.433,109.633 379.667,98.6 388.6,85.4L390,86C380.4,100.667 369.5,112.433 357.3,121.3C345.1,130.167 332.733,135.6 320.2,137.6C315,144.667 309.7,151.833 304.3,159.1C298.9,166.367 292.967,172.9 286.5,178.7C280.033,184.5 272.933,189.233 265.2,192.9C257.467,196.567 248.733,198.4 239,198.4C234.6,198.4 230.433,197.833 226.5,196.7C222.567,195.567 219.133,194 216.2,192C213.267,190 210.933,187.6 209.2,184.8C207.467,182 206.6,179 206.6,175.8C206.6,168.867 208.9,163.8 213.5,160.6C218.1,157.4 223.667,155.8 230.2,155.8L230.2,156.4C225.4,157.467 221.867,159.633 219.6,162.9C217.333,166.167 216.2,170.267 216.2,175.2C216.2,178.533 216.867,181.5 218.2,184.1C219.533,186.7 221.267,188.867 223.4,190.6C225.533,192.333 227.967,193.667 230.7,194.6C233.433,195.533 236.267,196 239.2,196C245.467,196 251.533,194.533 257.4,191.6C263.267,188.667 268.9,184.8 274.3,180C279.7,175.2 284.867,169.767 289.8,163.7C294.733,157.633 299.4,151.367 303.8,144.9C308.2,138.433 312.3,132.1 316.1,125.9C319.9,119.7 323.4,114.133 326.6,109.2L326.2,108.8C324.067,111.333 321.467,114.3 318.4,117.7C315.333,121.1 311.967,124.333 308.3,127.4C304.633,130.467 300.733,133.067 296.6,135.2C292.467,137.333 288.2,138.4 283.8,138.4C279.533,138.4 276.467,137.533 274.6,135.8C272.733,134.067 271.8,131.733 271.8,128.8C271.8,126.133 272.5,123.3 273.9,120.3C275.3,117.3 277.533,113.533 280.6,109C283.667,104.467 287.567,98.933 292.3,92.4C297.033,85.867 302.733,77.733 309.4,68L322.8,68Z" style="fill-rule:nonzero;"/>
    </g>
</svg>
